X:1
T:Title
%%score [ ( 1 2 ) ( 3 4 ) ]
L:1/8
Q:1/4=120
M:4/4
K:G
V:1 treble nm="Midi_74" snm=" "
V:2 treble 
V:3 bass nm="Midi_74"
V:4 bass 
V:1
"^Charles Wesley" D2 G2 G3 F | G2"^Hark! the herald-angels sing" B2 (B2 A2) | d2 d2 d3 c | %3
w: ~~Hark! the he- rald-|an- gels sing *|glo- ry to the|
w: |||
w: ~~Hail, the heav'n- born|Prince of Peace: *|hail, the Sun of|
 B2 A2"^F. Mendelssohn" B4 | D2 G2 G3 F | G2 B2 (B2 A2) | d2 A2 A3 F | F2 E2 D4 | d2 d2 d2 G2 | %9
w: new- born King;|peace on earth and|mer- cy mild, *|God and sin- ners|re- con- ciled:|Joy- ful all ye|
w: ||||||
w: Right- eous- ness!|Light and life to|all he brings, *|ris'n with heal- ing|in his wings.|Mild he lays his|
 c2 B2 (B2 A2) | d2 d2 d2 G2 | c2 B2 (B2 A2) | e2 e2 e2 d2 | c2 B2 c4 | A2 Bc d3 G | G2 A2 B4 | %16
w: na- tions rise, *|Join the tri- umph|of the skies, *|With th'an- ge- lic|host pro- claim,|Christ is * born in|Beth- le- hem.|
w: |||||||
w: glo- ry by, *|born that man no|more may die, *|born to raise the|sons of earth,|born to * give them|se- cond birth.|
 e3 e e2 d2 | c2 B2 c4 | A2 Bc d3 G | G2 A2 G4 |] %20
w: Hark! the her- ald-|an- gels sing|glo- ry * to the|new- born King.|
w: ||||
w: ||||
V:2
 D2 D2 D3 D | D2 G2 (G2 F2) | G2 F2 E2 A2 | G2 F2 G4 | D2 D2 D3 C | B,2 G2 G4 | F2 E2 F3 D | %7
w: |||||||
w: ~~~~Christ, by high- est|heav'n a- dored, *|Christ, the e- ver-|last- ing Lord,|late in time be-|hold him come,|off- spring of a|
 D2 ^C2 D4 | D2 D2 D2 G2 | A2 G2 (G2 F2) | D2 D2 D2 G2 | A2 G2 (G2 F2) | c2 c2 c2 B2 | A2 ^G2 A4 | %14
w: |||||||
w: Vir- gin's womb.|Veiled in flesh the|God- head see: *|hail, the~in- car- nate|De- i- ty, *|pleased as Man with|man to dwell,|
 F2 F2 G3 D | D2 F2 G4 | c3 c c2 B2 | A2 ^G2 A4 | D2 F2 G3 D | D2 F2 G4 |] %20
w: ||||||
w: Je- sus, our Em-|man- u- el.|||||
V:3
 B,2 B,2 B,3 A, | G,2 D2 D4 | D2 D2 E2 E2 | D2 D2 D4 | B,2 B,2 B,3 A, | G,2 D2 E4 | D2 E2 A,3 A, | %7
 B,2 G,2 F,4 | D2 D2 D2 D2 | D2 D2 D4 | D2 D2 D2 D2 | D2 D2 D4 | E2 E2 E2 =F2 | E2 D2 C4 | %14
 D2 D2 D3 B, | B,2 D2 D4 |"^This edition  Andrew Sims 2014" E3 E E2 D2 | C2 B,2 C4 | D2 D2 D3 B, | %19
 B,2 C2 B,4 |] %20
V:4
 G,2 G,2 G,3 D, | B,,2 G,,2 D,4 | B,,2 B,,2 C,2 C,2 | D,2 D,2 G,,4 | G,2 G,2 G,3 D, | %5
 E,2 D,2 (^C,3 A,,) | B,,2 ^C,2 D,2 F,,2 | G,,2 A,,2 D,4 | D2 D2 D2 B,2 | F,2 G,2 D,4 | %10
 D2 D2 D2 B,2 | F,2 G,2 D,4 | C,2 C,2 C,2 D,2 | E,2 E,2 A,4 | D2 C2 B,3 G, | D,2 D,2 G,4 | %16
 C3 C C2 B,2 | A,2 ^G,2 A,4 | F,2 C2 B,2 G,2 | D,2 D,2 G,4 |] %20

